X: 174
T: Round: the Ferry
%R: air, round, waltz
B: "The Everyday Song Book", 1927
F: http://www.library.pitt.edu/happybirthday/pdf/The_Everyday_Song_Book.pdf
Z: 2017 John Chambers <jc:trillian.mit.edu>
M: 3/4
L: 1/4
K: F
% - - - - - - - - - - - - - - - - - - - - - - - - - - - - -
"^I"c | c2A | d2 c | c2 B | A <A "^II"A | A2 F | B2 A |
w: A boat, a boat, to cross the fer-ry, We'll float and sing and
%
A2 G | F <F z | "^III"F2 z | F2 z | C C C | F <F |]
w: all be mer-ry; Sing, sing, sing and be mer-ry.
% - - - - - - - - - - - - - - - - - - - - - - - - - - - - -
